icons/reactts.svg

<svg width="16" height="16" viewBox="0 0 16 16" fill="none" xmlns="http://www.w3.org/2000/svg">
<path fill-rule="evenodd" clip-rule="evenodd" d="M5 13.1961C4.93414 13.1581 4.81483 13.0526 4.72796 12.7367C4.63949 12.415 4.60891 11.9486 4.68097 11.3444C4.70661 11.1294 4.7445 10.9032 4.79465 10.6677C5.27304 10.7735 5.78355 10.8563 6.31826 10.9129C6.63455 11.3477 6.96156 11.7484 7.29237 12.1098C7.1135 12.2709 6.93659 12.4168 6.7632 12.5465C6.27599 12.911 5.85671 13.1178 5.53388 13.202C5.21689 13.2847 5.06586 13.2342 5 13.1961ZM8 12.818C6.66858 14.0306 5.35456 14.5556 4.5 14.0622C3.64544 13.5688 3.44305 12.1683 3.82746 10.409C2.11163 9.86225 1 8.98676 1 8C1 7.01323 2.11163 6.13774 3.82746 5.59098C3.44305 3.83165 3.64544 2.4312 4.5 1.93782C5.35456 1.44444 6.66857 1.96939 8 3.18197C9.33142 1.96939 10.6454 1.44444 11.5 1.93782C12.3546 2.4312 12.5569 3.83165 12.1725 5.59099C13.8884 6.13774 15 7.01323 15 8C15 8.98676 13.8884 9.86226 12.1725 10.409C12.5569 12.1683 12.3546 13.5688 11.5 14.0622C10.6454 14.5556 9.33142 14.0306 8 12.818ZM11.2053 5.33229C11.2555 5.0968 11.2934 4.87064 11.319 4.65562C11.3911 4.05144 11.3605 3.58495 11.272 3.26326C11.1852 2.94738 11.0659 2.84187 11 2.80384C10.9341 2.76582 10.7831 2.71525 10.4661 2.79796C10.1433 2.88218 9.72401 3.08895 9.2368 3.45345C9.06341 3.58316 8.8865 3.72905 8.70763 3.89023C9.03844 4.25164 9.36545 4.65233 9.68174 5.08714C10.2164 5.14365 10.727 5.22651 11.2053 5.33229ZM7.29237 3.89023C7.1135 3.72906 6.93659 3.58316 6.7632 3.45345C6.27599 3.08895 5.85671 2.88218 5.53388 2.79796C5.21689 2.71525 5.06586 2.76582 5 2.80384C4.93414 2.84187 4.81483 2.94738 4.72796 3.26326C4.63949 3.58495 4.60891 4.05144 4.68097 4.65562C4.70662 4.87064 4.7445 5.0968 4.79465 5.33229C5.27305 5.2265 5.78355 5.14365 6.31826 5.08714C6.63455 4.65233 6.96155 4.25164 7.29237 3.89023ZM7.64835 5.00372C7.76523 4.86283 7.88259 4.72763 8 4.59835C8.1174 4.72763 8.23477 4.86283 8.35165 5.00372C8.23516 5.00125 8.11792 5 8 5C7.88208 5 7.76484 5.00125 7.64835 5.00372ZM5.58097 6.19732C5.40052 6.2281 5.22475 6.26214 5.05409 6.29917C5.10734 6.46549 5.16575 6.63473 5.22932 6.80639C5.28543 6.70428 5.34296 6.60212 5.40192 6.5C5.46088 6.39787 5.52058 6.29697 5.58097 6.19732ZM5.73852 8C5.89764 7.67008 6.07411 7.33574 6.26795 7C6.46179 6.66426 6.6631 6.34426 6.86926 6.0415C7.23454 6.01435 7.61232 6 8 6C8.38768 6 8.76546 6.01435 9.13074 6.0415C9.3369 6.34426 9.53821 6.66426 9.73205 7C9.92589 7.33574 10.1024 7.67008 10.2615 8C10.1024 8.32991 9.92589 8.66426 9.73205 9C9.53821 9.33574 9.33689 9.65573 9.13074 9.95849C8.76546 9.98565 8.38768 10 8 10C7.61232 10 7.23454 9.98565 6.86926 9.95849C6.6631 9.65573 6.46179 9.33574 6.26795 9C6.07411 8.66426 5.89764 8.32991 5.73852 8ZM4.63652 8C4.41811 7.50867 4.2346 7.02514 4.08703 6.55794C3.85801 6.63226 3.6432 6.71252 3.44417 6.79782C2.8849 7.03751 2.4962 7.29723 2.26184 7.5347C2.03173 7.76787 2 7.92395 2 8C2 8.07605 2.03173 8.23213 2.26184 8.4653C2.4962 8.70276 2.8849 8.96249 3.44417 9.20217C3.6432 9.28747 3.85801 9.36774 4.08702 9.44205C4.2346 8.97486 4.41811 8.49132 4.63652 8ZM5.05409 9.70082C5.10734 9.5345 5.16575 9.36527 5.22932 9.1936C5.28543 9.29572 5.34296 9.39787 5.40192 9.5C5.46088 9.60212 5.52059 9.70303 5.58097 9.80268C5.40052 9.77189 5.22475 9.73786 5.05409 9.70082ZM9.68174 10.9129C10.2164 10.8563 10.727 10.7735 11.2053 10.6677C11.2555 10.9032 11.2934 11.1294 11.319 11.3444C11.3911 11.9486 11.3605 12.415 11.272 12.7367C11.1852 13.0526 11.0659 13.1581 11 13.1961C10.9341 13.2342 10.7831 13.2847 10.4661 13.202C10.1433 13.1178 9.72401 12.911 9.2368 12.5465C9.06341 12.4168 8.8865 12.2709 8.70763 12.1098C9.03844 11.7484 9.36545 11.3477 9.68174 10.9129ZM8.35165 10.9963C8.23476 11.1372 8.1174 11.2724 8 11.4016C7.88259 11.2724 7.76523 11.1372 7.64835 10.9963C7.76484 10.9987 7.88208 11 8 11C8.11792 11 8.23516 10.9987 8.35165 10.9963ZM10.419 9.80267C10.4794 9.70302 10.5391 9.60212 10.5981 9.5C10.657 9.39787 10.7146 9.29572 10.7707 9.1936C10.8342 9.36527 10.8927 9.5345 10.9459 9.70082C10.7752 9.73786 10.5995 9.77189 10.419 9.80267ZM11.3635 8C11.5819 8.49132 11.7654 8.97486 11.913 9.44205C12.142 9.36774 12.3568 9.28747 12.5558 9.20217C13.1151 8.96249 13.5038 8.70276 13.7382 8.4653C13.9683 8.23213 14 8.07605 14 8C14 7.92395 13.9683 7.76787 13.7382 7.5347C13.5038 7.29723 13.1151 7.03751 12.5558 6.79782C12.3568 6.71252 12.142 6.63226 11.913 6.55794C11.7654 7.02514 11.5819 7.50867 11.3635 8ZM10.7707 6.80639C10.8342 6.63473 10.8927 6.46549 10.9459 6.29918C10.7753 6.26214 10.5995 6.2281 10.419 6.19732C10.4794 6.29697 10.5391 6.39788 10.5981 6.5C10.657 6.60212 10.7146 6.70428 10.7707 6.80639ZM8 9C8.55228 9 9 8.55228 9 8C9 7.44771 8.55228 7 8 7C7.44772 7 7 7.44771 7 8C7 8.55228 7.44772 9 8 9Z" fill="#0E8ADC"/>
</svg>

<svg xmlns="http://www.w3.org/2000/svg" width="16" height="16" fill="none"><path fill="#0E8ADC" fill-rule="evenodd" d="M5 13.196c-.066-.038-.185-.143-.272-.46-.089-.321-.12-.787-.047-1.392.026-.215.064-.44.114-.676.478.106.989.188 1.523.245.317.435.644.835.974 1.197a7.568 7.568 0 0 1-.529.437c-.487.364-.906.57-1.23.655-.316.083-.467.032-.533-.006Zm3-.378c-1.331 1.213-2.645 1.738-3.5 1.244-.855-.493-1.057-1.894-.673-3.653C2.112 9.862 1 8.987 1 8c0-.987 1.112-1.862 2.827-2.409-.384-1.76-.182-3.16.673-3.653.855-.494 2.169.031 3.5 1.244 1.331-1.213 2.645-1.738 3.5-1.244.855.493 1.057 1.894.672 3.653C13.888 6.138 15 7.013 15 8c0 .987-1.112 1.862-2.828 2.409.385 1.76.183 3.16-.672 3.653-.855.494-2.169-.031-3.5-1.244Zm3.205-7.486a7.52 7.52 0 0 0 .114-.676c.072-.605.041-1.071-.047-1.393-.087-.316-.206-.421-.272-.46-.066-.037-.217-.088-.534-.005-.323.084-.742.291-1.23.655a7.55 7.55 0 0 0-.528.437c.33.362.657.762.974 1.197.534.057 1.045.14 1.523.245ZM7.292 3.89a7.553 7.553 0 0 0-.529-.437c-.487-.364-.906-.57-1.23-.655-.316-.083-.467-.032-.533.006s-.185.143-.272.46c-.089.321-.12.787-.047 1.392.026.215.064.44.114.676.478-.106.989-.188 1.523-.245.317-.435.644-.835.974-1.197Zm.356 1.114c.117-.141.235-.276.352-.406.117.13.235.265.352.406a16.59 16.59 0 0 0-.704 0ZM5.581 6.197c-.18.031-.356.065-.527.102.053.166.112.336.175.507a16.634 16.634 0 0 1 .352-.609ZM5.739 8a15.265 15.265 0 0 1 1.13-1.958 15.27 15.27 0 0 1 2.262 0A15.264 15.264 0 0 1 10.26 8a15.258 15.258 0 0 1-1.13 1.958 15.264 15.264 0 0 1-2.262 0A15.264 15.264 0 0 1 5.74 8ZM4.637 8a13.784 13.784 0 0 1-.55-1.442 7.554 7.554 0 0 0-.643.24c-.56.24-.948.5-1.182.737C2.032 7.768 2 7.924 2 8c0 .076.032.232.262.465.234.238.623.497 1.182.737.2.085.414.166.643.24.148-.467.331-.95.55-1.442Zm.417 1.7c.053-.165.112-.335.175-.506a16.635 16.635 0 0 0 .352.609c-.18-.031-.356-.065-.527-.102Zm4.628 1.213c.534-.057 1.045-.14 1.523-.245.05.235.088.461.114.676.072.605.041 1.071-.047 1.393-.087.316-.206.421-.272.46-.066.037-.217.088-.534.005-.323-.084-.742-.291-1.23-.655a7.568 7.568 0 0 1-.528-.437c.33-.362.657-.762.974-1.197Zm-1.33.083c-.117.141-.235.276-.352.406-.117-.13-.235-.265-.352-.406a17.07 17.07 0 0 0 .704 0Zm2.067-1.193a16.741 16.741 0 0 0 .352-.61c.063.172.122.341.175.508-.17.037-.346.07-.527.102ZM11.363 8c.219.491.402.975.55 1.442.229-.074.444-.155.643-.24.56-.24.948-.5 1.182-.737.23-.233.262-.389.262-.465 0-.076-.032-.232-.262-.465-.234-.238-.623-.497-1.182-.737a7.551 7.551 0 0 0-.643-.24c-.148.467-.331.95-.55 1.442Zm-.592-1.194c.063-.171.122-.34.175-.507-.17-.037-.346-.07-.527-.102a16.742 16.742 0 0 1 .352.61ZM8 9a1 1 0 1 0 0-2 1 1 0 0 0 0 2Z" clip-rule="evenodd"/></svg>
